src/vs/editor/contrib/suggest/media/Enumerator_16x.svg

<svg viewBox="0 0 16 16" xmlns="http://www.w3.org/2000/svg"><path d="m16 16h-16v-16h16z" fill="#f6f6f6" opacity="0"/><path d="m14.414 1 1.586 1.586v5.828l-1.586 1.586h-4.414v3.416l-1.586 1.584h-6.828l-1.586-1.584v-5.83l1.586-1.586h4.414v-3.414l1.586-1.586z" fill="#f6f6f6"/><path d="m2 13h6v-5h-6zm1-4h4v1h-4zm0 2h4v1h-4zm11-5v-3h-6v3h.414l.586.586v-.586h4v1h-3.586l.586.586v.414h4zm-1-1h-4v-1h4z" fill="#f0eff1"/><path d="m3 11h4.001v1h-4.001zm0-1h4.001v-1h-4.001zm6-2v5l-1 1h-6l-1-1v-5l1-1h6zm-1 0h-6v5h6zm1-2 1 1h3v-1zm0-1h4v-1h-4zm5-3h-6l-1 1v3h1v-3h6v5h-4v1h4l1-1v-5z" fill="#c27d1a"/></svg>

<svg xmlns="http://www.w3.org/2000/svg" viewBox="0 0 16 16"><style>.icon-canvas-transparent{opacity:0;fill:#f6f6f6}.icon-vs-out{fill:#f6f6f6}.icon-vs-fg{fill:#f0eff1}.icon-vs-action-orange{fill:#c27d1a}</style><path class="icon-canvas-transparent" d="M16 16H0V0h16v16z" id="canvas"/><path class="icon-vs-out" d="M14.414 1L16 2.586v5.828L14.414 10H10v3.416L8.414 15H1.586L0 13.416v-5.83L1.586 6H6V2.586L7.586 1h6.828z" id="outline"/><path class="icon-vs-fg" d="M2 13h6V8H2v5zm1-4h4v1H3V9zm0 2h4v1H3v-1zm11-5V3H8v3h.414L9 6.586V6h4v1H9.414l.586.586V8h4V6zm-1-1H9V4h4v1z" id="iconFg"/><path class="icon-vs-action-orange" d="M3 11h4.001v1H3v-1zm0-1h4.001V9H3v1zm6-2v5l-1 1H2l-1-1V8l1-1h6l1 1zM8 8H2v5h6V8zm1-2l1 1h3V6H9zm0-1h4V4H9v1zm5-3H8L7 3v3h1V3h6v5h-4v1h4l1-1V3l-1-1z" id="iconBg"/></svg>
